lib/functional/design/ruler.svg

<svg xmlns="http://www.w3.org/2000/svg" fill="none" stroke="currentColor" aria-hidden="true" viewBox="0 0 32 32"><g id="Icon-Ruler"><g clip-path="url(#clip0_8_506)"><g id="size=md (32px)"><g id="Ruler"><path id="Vector" stroke-linecap="round" stroke-linejoin="round" stroke-width="2" d="M20.2892 3.70517L3.7076 20.2868C3.31707 20.6773 3.31707 21.3105 3.7076 21.701L10.2934 28.2869C10.6839 28.6774 11.3171 28.6774 11.7076 28.2869L28.2893 11.7052C28.6798 11.3147 28.6798 10.6815 28.2893 10.291L21.7035 3.70517C21.3129 3.31464 20.6798 3.31464 20.2892 3.70517Z"/><path id="Vector_2" stroke-linecap="round" stroke-linejoin="round" stroke-width="2" d="M16.5 7.5L20.5 11.5"/><path id="Vector_3" stroke-linecap="round" stroke-linejoin="round" stroke-width="2" d="M12 12L16 16"/><path id="Vector_4" stroke-linecap="round" stroke-linejoin="round" stroke-width="2" d="M7.5 16.5L11.5 20.5"/></g></g></g></g><defs><clipPath id="clip0_8_506"><rect width="32" height="32" fill="white" rx="5"/></clipPath></defs></svg>

<svg xmlns="http://www.w3.org/2000/svg" fill="none" stroke="currentColor" aria-hidden="true" viewBox="0 0 32 32"><g stroke="#101828" stroke-linecap="round" stroke-linejoin="round" stroke-width="2" clip-path="url(#a)"><path d="M20.29 3.705 3.707 20.287a1 1 0 0 0 0 1.414l6.585 6.586a1 1 0 0 0 1.415 0l16.581-16.582a1 1 0 0 0 0-1.414l-6.586-6.586a1 1 0 0 0-1.414 0ZM16.5 7.5l4 4M12 12l4 4m-8.5.5 4 4"/></g><defs><clipPath id="a"><rect width="32" height="32" fill="#fff" rx="5"/></clipPath></defs></svg>
